X: 40261
T: To Hell With Austerity
R: slide
M: 12/8
K: Amajor
c3 e3 d2e f2d|c2e A2e B2c dcB|
c2e e2c d2e f2g|a2g f2e fef e2d|
c3d edc d2e f2d|c2e A2e B2c dcB|
c2e e2c d2e f2g|a2g f2e fef e2d
|:c2e A2e cde f2e|c2e A2e B2c dcB|
c2e A2e cde f2g|a2g f2e fef e2d:|

